openmetadata-ui/src/main/resources/ui/src/assets/svg/ic-function.svg

<svg width="16" height="16" viewBox="0 0 16 16" fill="none" xmlns="http://www.w3.org/2000/svg">
<path d="M3.85833 16C5.16571 16 5.85975 14.8324 6.06386 14.1427C6.06713 14.1317 6.07015 14.1207 6.07295 14.1092C6.54853 12.1395 7.30613 9.01749 7.86737 6.74663H9.87542C10.253 6.74663 10.5591 6.44057 10.5591 6.06289C10.5591 5.68523 10.253 5.37917 9.87542 5.37917H8.20721C8.38683 4.66368 8.5183 4.15409 8.57006 3.98019L8.62754 3.78551C8.83951 3.06216 9.33585 1.36779 10.1034 1.36779C10.8152 1.36779 10.9213 2.46399 10.9262 2.51697C10.9565 2.89229 11.2838 3.17577 11.6601 3.14332C12.0366 3.11459 12.3184 2.78552 12.2893 2.4092C12.2254 1.57581 11.6858 0 10.1032 0C8.31127 0 7.63855 2.29681 7.31534 3.40087L7.26033 3.58713C7.19465 3.8056 7.02231 4.47877 6.79755 5.37917H4.4053C4.02763 5.37917 3.72158 5.68523 3.72158 6.06289C3.72158 6.44057 4.02763 6.74663 4.4053 6.74663H6.45883C5.75681 9.594 4.84955 13.3497 4.74975 13.7632C4.71247 13.8716 4.43214 14.6324 3.85866 14.6324C2.98297 14.6324 2.60382 13.4033 2.60079 13.3941C2.49571 13.0316 2.11747 12.8218 1.75383 12.9275C1.39121 13.0327 1.18216 13.4119 1.28724 13.7745C1.52649 14.6011 2.33697 16 3.85833 16Z" fill="currentColor"/>
<path d="M13.9984 14.2367C14.4014 14.2367 14.7399 13.9504 14.7399 13.4948C14.7399 13.2832 14.6552 13.0923 14.4751 12.8803L13.0553 11.2486L14.433 9.63796C14.56 9.47899 14.6552 9.30946 14.6552 9.08694C14.6552 8.6839 14.3267 8.38739 13.9027 8.38739C13.6168 8.38739 13.3944 8.56747 13.2034 8.80099L12.1333 10.1992L11.0844 8.80076C10.8722 8.53615 10.65 8.38739 10.3322 8.38739C9.92915 8.38739 9.59043 8.67379 9.59043 9.12938C9.59043 9.341 9.6753 9.53198 9.85505 9.7436L11.1797 11.2696L9.72785 12.9861C9.59009 13.145 9.50555 13.3146 9.50555 13.5371C9.50555 13.94 9.83406 14.2364 10.2576 14.2364C10.5438 14.2364 10.7662 14.0563 10.957 13.8231L12.101 12.3186L13.2454 13.8231C13.458 14.0883 13.6806 14.2367 13.9984 14.2367Z" fill="currentColor"/>
</svg>

<svg xmlns="http://www.w3.org/2000/svg" width="16" height="16" fill="none"><path fill="currentColor" d="M3.858 16c1.308 0 2.002-1.168 2.206-1.857a1605.45 1605.45 0 0 1 1.804-7.396h2.007a.684.684 0 1 0 0-1.368H8.207c.18-.715.311-1.225.363-1.399l.058-.194c.212-.724.708-2.418 1.475-2.418.712 0 .818 1.096.823 1.149a.684.684 0 0 0 1.363-.108C12.225 1.576 11.686 0 10.103 0 8.311 0 7.64 2.297 7.315 3.4l-.055.187c-.065.219-.238.892-.462 1.792H4.405a.684.684 0 1 0 0 1.368H6.46c-.702 2.847-1.61 6.603-1.71 7.016-.037.109-.317.87-.89.87-.876 0-1.255-1.23-1.258-1.239a.683.683 0 1 0-1.314.38c.24.827 1.05 2.226 2.571 2.226ZM13.998 14.237c.403 0 .742-.287.742-.742 0-.212-.085-.403-.265-.615l-1.42-1.631 1.378-1.611c.127-.159.222-.329.222-.551 0-.403-.328-.7-.752-.7-.286 0-.509.18-.7.414l-1.07 1.398-1.049-1.398c-.212-.265-.434-.414-.752-.414-.403 0-.742.287-.742.742 0 .212.085.403.265.615l1.325 1.526-1.452 1.716a.805.805 0 0 0-.222.551c0 .403.328.7.752.7.286 0 .508-.18.699-.414l1.144-1.504 1.144 1.504c.213.265.436.414.753.414Z"/></svg>
